; generated by PrusaSlicer 2.9.2 on 2025-07-19 at 08:23:41 UTC


;
;
; 

; external perimeters extrusion width = 0.45mm
; perimeters extrusion width = 0.45mm
; infill extrusion width = 0.45mm
; solid infill extrusion width = 0.45mm
; top infill extrusion width = 0.40mm
; support material extrusion width = 0.35mm
; first layer extrusion width = 0.42mm

M73 P0 R64
M73 Q0 S65
M201 X1000 Y1000 Z200 E5000 ; sets maximum accelerations, mm/sec^2
M203 X200 Y200 Z12 E120 ; sets maximum feedrates, mm / sec
M204 S1250 T1250 ; sets acceleration (S) and retract acceleration (R), mm/sec^2
M205 X8.00 Y8.00 Z0.40 E4.50 ; sets the jerk limits, mm/sec
M205 S0 T0 ; sets the minimum extruding and travel feed rate, mm/sec

; printing object AntennaMount.STL id:0 copy 0
; stop printing object AntennaMount.STL id:0 copy 0

;TYPE:Custom
M862.3 P "MK3S" ; printer model check
M862.1 P0.4 ; nozzle diameter check
M115 U3.14.1 ; tell printer latest fw version
G90 ; use absolute coordinates
M83 ; extruder relative mode
M104 S215 ; set extruder temp
M140 S60 ; set bed temp
M190 S60 ; wait for bed temp
M109 S215 ; wait for extruder temp
G28 W ; home all without mesh bed level
G80 X87.6229 Y87.6229 W74.7542 H34.7542 ; mesh bed levelling

G1 Z0.2 F720
G1 Y-3 F1000 ; go outside print area
G92 E0
G1 X60 E9 F1000 ; intro line
G1 X100 E12.5 F1000 ; intro line

G92 E0
M221 S95

; Don't change E values below. Excessive value can damage the printer.
M907 E430 ; set extruder motor current
G21 ; set units to millimeters
G90 ; use absolute coordinates
M83 ; use relative distances for extrusion

M900 K0.05 ; Filament gcode LA 1.5
M900 K30 ; Filament gcode LA 1.0




M107
;LAYER_CHANGE
;Z:0.2
;HEIGHT:0.2
G1 E-.8 F2100
G1 Z.6 F720
G1 X91.265 Y91.508 F10800
G1 Z.2 F720
M73 Q0 S64
G1 E.8 F2100
M204 S800
;TYPE:Skirt/Brim
;WIDTH:0.42
G1 F1200
G1 X92.701 Y90.246 E.05994
G1 X94.623 Y89.068 E.07068
G1 X96.399 Y88.361 E.05994
G1 X97.925 Y87.995 E.0492
G1 X100 Y87.811 E.06532
G1 X150.172 Y87.818 E1.57311
G1 X152.075 Y87.995 E.05992
G1 X153.601 Y88.361 E.0492
G1 X155.278 Y89.027 E.05658
G1 X157.021 Y90.044 E.06327
G1 X158.492 Y91.265 E.05994
G1 X159.754 Y92.701 E.05994
G1 X160.932 Y94.623 E.07068
G1 X161.639 Y96.399 E.05994
G1 X162.059 Y98.264 E.05994
G1 X162.189 Y100 E.05458
G1 X162.189 Y110 E.31354
G1 X162.059 Y111.736 E.05458
G1 X161.639 Y113.601 E.05994
G1 X160.932 Y115.377 E.05994
G1 X159.754 Y117.299 E.07068
G1 X158.735 Y118.492 E.04919
G1 X157.299 Y119.754 E.05994
G1 X155.377 Y120.932 E.07068
G1 X153.928 Y121.533 E.04919
G1 X152.075 Y122.005 E.05995
G1 X150 Y122.189 E.06532
G1 X100 Y122.189 E1.56771
G1 X98.264 Y122.059 E.05458
G1 X96.072 Y121.533 E.07068
G1 X94.623 Y120.932 E.04919
G1 X92.979 Y119.956 E.05995
G1 X91.508 Y118.735 E.05994
G1 X90.271 Y117.329 E.05872
G1 X89.068 Y115.377 E.07189
G1 X88.467 Y113.928 E.04919
G1 X88.034 Y112.237 E.05473
G1 X87.818 Y110.172 E.0651
G1 X87.811 Y100 E.31894
G1 X87.995 Y97.925 E.06532
G1 X88.361 Y96.399 E.0492
G1 X89.068 Y94.623 E.05994
G1 X90.246 Y92.701 E.07068
G1 X91.226 Y91.553 E.04733
M204 S1000
;WIPE_START
G1 F8640
G1 X91.265 Y91.508 E-.01375
G1 X92.701 Y90.246 E-.44143
G1 X93.974 Y89.466 E-.34482
;WIPE_END
G1 Z.6 F720
; printing object AntennaMount.STL id:0 copy 0
G1 X131.05 Y108.723 F10800
G1 Z.2 F720
G1 E.8 F2100
M204 S800
;TYPE:Perimeter
;WIDTH:0.432846
G1 F1200
G1 X130.87 Y108.357 E.01322
M204 S1000
;WIPE_START
G1 F8640
G1 X131.05 Y108.723 E-.09418
;WIPE_END
G1 E-.70582 F2100
G1 Z.6 F720
G1 X123.189 Y109.879 F10800
G1 Z.2 F720
G1 E.8 F2100
M204 S800
;WIDTH:0.449901
G1 F1200
G1 X123.181 Y109.394 E.01641
;WIDTH:0.477142
G1 X123.172 Y108.908 E.01755
;WIDTH:0.522804
G1 X123.167 Y108.574 E.01333
;WIDTH:0.568466
G1 X123.162 Y108.241 E.01455
;WIDTH:0.568718
G1 X123.161 Y108.239 E.0001
M204 S1000
;WIPE_START
G1 F8640
G1 X123.162 Y108.241 E-.00052
G1 X123.167 Y108.574 E-.0769
G1 X123.172 Y108.908 E-.07713
G1 X123.181 Y109.394 E-.11224
G1 X123.189 Y109.879 E-.112
;WIPE_END
G1 E-.42121 F2100
G1 Z.6 F720
G1 X125.053 Y108.09 F10800
G1 Z.2 F720
G1 E.8 F2100
M204 S800
;WIDTH:0.419999
G1 F1200
G1 X125.453 Y107.809 E.01533
G1 X125.68 Y107.726 E.00758
G1 X126.18 Y107.657 E.01583
G1 X126.385 Y107.667 E.00644
G1 X126.888 Y107.795 E.01627
G1 X127.063 Y107.925 E.00684
G1 X127.275 Y107.874 E.00684
G1 X127.8 Y107.89 E.01647
G1 X127.923 Y107.942 E.00419
G1 X128.023 Y108.114 E.00624
G1 X128.126 Y107.943 E.00626
G1 X128.745 Y107.759 E.02025
G1 X129.312 Y107.688 E.01792
G1 X129.899 Y107.741 E.01848
G1 X130.437 Y107.965 E.01827
;WIDTH:0.432846
G1 X130.87 Y108.357 E.01894
G1 X130.619 Y107.788 E.02016
;WIDTH:0.419999
G1 X130.476 Y107.458 E.01128
G1 X130.453 Y107.27 E.00594
G1 X130.562 Y106.963 E.01021
G1 X130.781 Y106.784 E.00887
G1 X131.018 Y106.732 E.00761
G1 X131.843 Y106.732 E.02587
G1 X132.105 Y106.796 E.00846
G1 X132.317 Y106.988 E.00897
G1 X133.191 Y108.941 E.06709
G1 X133.21 Y108.242 E.02192
G1 X133.387 Y107.837 E.01386
G1 X133.731 Y107.683 E.01182
G1 X134.314 Y107.696 E.01828
G1 X134.669 Y107.726 E.01117
G1 X134.905 Y107.871 E.00868
G1 X135.025 Y108.056 E.00691
G1 X135.053 Y108.253 E.00624
G1 X135.295 Y107.996 E.01107
G1 X135.756 Y107.755 E.01631
G1 X136.409 Y107.634 E.02082
G1 X137.056 Y107.703 E.0204
G1 X137.465 Y107.878 E.01395
G1 X137.796 Y108.085 E.01224
G1 X138.12 Y108.491 E.01629
G1 X138.231 Y108.73 E.00826
G1 X138.252 Y109.202 E.01481
G1 X138.196 Y109.283 E.00309
G1 X138.283 Y109.329 E.00309
G1 X138.468 Y109.818 E.01639
G1 X138.484 Y110.108 E.00911
G1 X138.377 Y110.618 E.01634
G1 X138.186 Y110.948 E.01196
G1 X137.88 Y111.325 E.01522
G1 X137.439 Y111.636 E.01692
G1 X136.921 Y111.806 E.01709
G1 X136.298 Y111.831 E.01955
G1 X135.891 Y111.715 E.01327
G1 X135.5 Y111.528 E.01359
G1 X135.296 Y111.337 E.00876
G1 X135.154 Y111.511 E.00704
G1 X135.075 Y111.549 E.00275
G1 X135.076 Y112.268 E.02254
G1 X134.991 Y112.557 E.00945
G1 X134.797 Y112.747 E.00851
G1 X134.51 Y112.825 E.00933
G1 X133.782 Y112.796 E.02284
G1 X133.504 Y112.71 E.00912
G1 X133.33 Y112.539 E.00765
G1 X133.248 Y112.335 E.00689
G1 X133.313 Y111.629 E.02223
G1 X132.86 Y111.737 E.0146
G1 X132.6 Y111.685 E.00831
G1 X132.498 Y111.624 E.00373
G1 X132.33 Y111.421 E.00826
G1 X132.057 Y110.853 E.01976
G1 X131.788 Y111.423 E.01976
G1 X131.621 Y111.625 E.00822
G1 X131.352 Y111.734 E.0091
G1 X131.115 Y111.714 E.00746
G1 X130.724 Y111.595 E.01281
G1 X130.648 Y111.933 E.01086
G1 X130.443 Y112.238 E.01152
G1 X130.039 Y112.556 E.01612
G1 X129.494 Y112.714 E.01779
G1 X128.767 Y112.736 E.0228
G1 X128.208 Y112.699 E.01757
G1 X127.99 Y112.638 E.0071
G1 X127.807 Y112.49 E.00738
G1 X127.702 Y112.287 E.00717
G1 X127.686 Y112.062 E.00707
G1 X127.755 Y111.524 E.01701
G1 X127.634 Y111.611 E.00467
G1 X127.153 Y111.59 E.0151
G1 X127.002 Y111.522 E.00519
G1 X126.826 Y111.679 E.00739
G1 X126.599 Y111.76 E.00756
G1 X126.048 Y111.826 E.0174
G1 X125.418 Y111.657 E.02045
G1 X125.065 Y111.441 E.01298
G1 X124.697 Y110.988 E.0183
G1 X124.518 Y111.293 E.01109
G1 X124.115 Y111.635 E.01657
G1 X123.639 Y111.791 E.01571
G1 X123.092 Y111.765 E.01717
G1 X123.014 Y111.74 E.00257
G1 X123.099 Y112.183 E.01414
G1 X123.065 Y112.406 E.00707
G1 X122.899 Y112.643 E.00907
G1 X122.632 Y112.769 E.00926
G1 X121.886 Y112.811 E.02343
G1 X121.663 Y112.777 E.00707
G1 X121.433 Y112.619 E.00875
G1 X121.327 Y112.442 E.00647
G1 X121.294 Y112.184 E.00816
G1 X121.31 Y111.498 E.02151
G1 X121 Y111.684 E.01134
G1 X120.624 Y111.803 E.01237
G1 X120.21 Y111.843 E.01304
G1 X119.665 Y111.772 E.01723
G1 X119.356 Y111.667 E.01023
G1 X119.003 Y111.448 E.01303
G1 X118.658 Y111.098 E.01541
G1 X118.574 Y110.927 E.00597
G1 X118.368 Y111.228 E.01144
G1 X117.972 Y111.587 E.01676
G1 X117.42 Y111.798 E.01853
G1 X116.792 Y111.839 E.01973
G1 X116.183 Y111.691 E.01965
G1 X115.754 Y111.41 E.01608
G1 X115.534 Y111.206 E.00941
G1 X115.483 Y111.809 E.01897
G1 X115.384 Y112.357 E.01746
G1 X115.217 Y112.554 E.0081
G1 X114.974 Y112.658 E.00829
G1 X114.438 Y112.73 E.01696
G1 X114.197 Y112.652 E.00794
G1 X113.981 Y112.419 E.00996
G1 X113.504 Y111.462 E.03353
G1 X113.279 Y110.947 E.01762
G1 X113.196 Y110.647 E.00976
G1 X112.874 Y111.463 E.02751
G1 X112.395 Y112.42 E.03355
G1 X112.18 Y112.653 E.00994
G1 X111.938 Y112.731 E.00797
G1 X111.401 Y112.658 E.01699
G1 X111.185 Y112.574 E.00727
G1 X110.989 Y112.351 E.00931
G1 X110.871 Y111.686 E.02118
G1 X110.427 Y108.315 E.10661
G1 X110.459 Y108.041 E.00865
G1 X110.628 Y107.805 E.0091
G1 X110.864 Y107.689 E.00825
G1 X111.414 Y107.679 E.01725
G1 X111.926 Y107.711 E.01608
G1 X112.03 Y107.759 E.00359
G1 X112.257 Y108.01 E.01061
G1 X112.324 Y108.416 E.0129
G1 X112.511 Y108.009 E.01404
G1 X112.738 Y107.759 E.01059
G1 X113.025 Y107.681 E.00933
G1 X113.525 Y107.705 E.0157
G1 X113.678 Y107.777 E.0053
G1 X113.876 Y108.01 E.00959
G1 X114.087 Y108.469 E.01584
G1 X114.188 Y108.021 E.0144
G1 X114.402 Y107.802 E.0096
G1 X114.655 Y107.728 E.00826
G1 X115.178 Y107.798 E.01654
G1 X115.474 Y107.865 E.00952
G1 X115.632 Y107.971 E.00597
G1 X115.72 Y108.158 E.00648
G1 X116.067 Y107.859 E.01436
G1 X116.396 Y107.726 E.01113
G1 X116.909 Y107.635 E.01634
G1 X117.539 Y107.71 E.01989
G1 X117.778 Y107.802 E.00803
G1 X118.215 Y108.069 E.01606
G1 X118.507 Y108.422 E.01436
G1 X118.563 Y108.531 E.00384
G1 X118.844 Y108.146 E.01494
G1 X119.39 Y107.795 E.02035
G1 X119.664 Y107.711 E.00899
G1 X120.212 Y107.633 E.01736
G1 X120.681 Y107.695 E.01483
G1 X121.165 Y107.878 E.01622
G1 X121.526 Y108.141 E.014
G1 X121.761 Y107.921 E.01009
G1 X122.382 Y107.748 E.02021
G1 X122.653 Y107.745 E.0085
G1 X122.849 Y107.832 E.00672
;WIDTH:0.469572
G1 X122.953 Y107.968 E.00607
;WIDTH:0.519145
G1 X123.057 Y108.103 E.00675
;WIDTH:0.568718
G1 X123.161 Y108.239 E.00749
G1 X123.261 Y108.1 E.00749
;WIDTH:0.519145
G1 X123.361 Y107.962 E.00675
;WIDTH:0.469572
G1 X123.461 Y107.823 E.00607
;WIDTH:0.419999
G1 X123.732 Y107.714 E.00916
G1 X124.382 Y107.771 E.02046
G1 X124.681 Y107.842 E.00964
G1 X124.879 Y108.014 E.00822
G1 X124.951 Y108.161 E.00513
G1 X125.004 Y108.124 E.00203
M204 S1000
;WIPE_START
G1 F8640
G1 X125.053 Y108.09 E-.01377
G1 X125.453 Y107.809 E-.11287
G1 X125.68 Y107.726 E-.05581
G1 X126.18 Y107.657 E-.11655
G1 X126.385 Y107.667 E-.04739
G1 X126.888 Y107.795 E-.11985
G1 X127.063 Y107.925 E-.05034
G1 X127.275 Y107.874 E-.05035
G1 X127.8 Y107.89 E-.12128
G1 X127.923 Y107.942 E-.03083
G1 X128.023 Y108.114 E-.04594
G1 X128.101 Y107.984 E-.03502
;WIPE_END
G1 Z.6 F720
G1 X121.383 Y110.917 F10800
G1 Z.2 F720
G1 E.8 F2100
M204 S800
;TYPE:External perimeter
;WIDTH:0.518191
G1 F1200
G1 X121.372 Y110.929 E.00064
;WIDTH:0.469095
G1 X121.25 Y111.07 E.00661
;WIDTH:0.419999
G1 X120.875 Y111.329 E.01429
G1 X120.576 Y111.429 E.00989
G1 X120.243 Y111.468 E.01051
G1 X119.687 Y111.385 E.01763
G1 X119.281 Y111.192 E.01409
G1 X118.948 Y110.846 E.01506
G1 X118.694 Y110.217 E.02127
;WIDTH:0.459509
G1 X118.646 Y110.065 E.00552
;WIDTH:0.499019
G1 X118.599 Y109.912 E.00607
;WIDTH:0.538529
G1 X118.551 Y109.759 E.00661
G1 X118.46 Y110.064 E.01312
;WIDTH:0.499019
G1 X118.369 Y110.368 E.01203
;WIDTH:0.459509
G1 X118.278 Y110.673 E.01103
;WIDTH:0.419999
G1 X118.11 Y110.953 E.01024
G1 X117.73 Y111.291 E.01595
G1 X117.242 Y111.453 E.01612
G1 X116.728 Y111.455 E.01612
G1 X116.224 Y111.296 E.01657
G1 X115.834 Y110.982 E.0157
;WIDTH:0.440405
G1 X115.568 Y110.492 E.01843
G1 X115.506 Y109.944 E.01823
;WIDTH:0.40381
G1 X115.496 Y109.709 E.00706
;WIDTH:0.38211
G1 X115.565 Y109.249 E.01312
;WIDTH:0.419999
G1 X115.837 Y108.591 E.02232
G1 X116.208 Y108.212 E.01663
G1 X116.463 Y108.097 E.00877
G1 X116.979 Y108.01 E.01641
G1 X117.484 Y108.083 E.016
G1 X117.943 Y108.336 E.01643
G1 X118.172 Y108.595 E.01084
G1 X118.288 Y108.83 E.00822
G1 X118.348 Y109.171 E.01086
;WIDTH:0.433895
G1 X118.351 Y109.209 E.00124
;WIDTH:0.468412
G1 X118.354 Y109.247 E.00135
G1 X118.273 Y109.322 E.00391
G1 X118.112 Y109.392 E.00621
;WIDTH:0.4394
G1 X117.951 Y109.463 E.0058
G1 X118.129 Y109.451 E.00588
;WIDTH:0.468412
G1 X118.307 Y109.438 E.00631
G1 X118.41 Y109.465 E.00377
;WIDTH:0.504933
G1 X118.482 Y109.569 E.00486
;WIDTH:0.541454
G1 X118.555 Y109.673 E.00527
G1 X118.619 Y109.485 E.00823
;WIDTH:0.497168
G1 X118.683 Y109.297 E.0075
;WIDTH:0.452881
G1 X118.748 Y109.109 E.00678
;WIDTH:0.419999
G1 X118.93 Y108.638 E.01583
G1 X119.155 Y108.376 E.01083
G1 X119.584 Y108.118 E.0157
G1 X120.199 Y108.012 E.01957
G1 X120.564 Y108.053 E.01152
G1 X120.95 Y108.188 E.01282
G1 X121.201 Y108.373 E.00978
;WIDTH:0.467138
G1 X121.42 Y108.62 E.01164
;WIDTH:0.514276
G1 X121.64 Y108.866 E.01293
;WIDTH:0.558485
G1 X121.687 Y108.938 E.00369
;WIDTH:0.602694
G1 X121.733 Y109.01 E.00398
G1 X121.756 Y108.865 E.00683
;WIDTH:0.557021
G1 X121.779 Y108.719 E.00632
;WIDTH:0.511347
G1 X121.802 Y108.573 E.00576
;WIDTH:0.465673
G1 X121.825 Y108.427 E.0052
;WIDTH:0.419999
G1 X121.888 Y108.288 E.00478
G1 X122.477 Y108.113 E.01927
G1 X122.632 Y108.141 E.00494
G1 X122.712 Y108.279 E.005
G1 X122.766 Y108.906 E.01973
G1 X122.785 Y109.715 E.02537
G1 X122.859 Y110.063 E.01116
G1 X123.144 Y110.333 E.01231
G1 X123.426 Y110.322 E.00885
G1 X123.51 Y110.232 E.00386
G1 X123.567 Y109.92 E.00994
G1 X123.578 Y108.859 E.03327
G1 X123.612 Y108.267 E.01859
G1 X123.732 Y108.1 E.00645
G1 X124.341 Y108.145 E.01915
G1 X124.507 Y108.177 E.0053
G1 X124.6 Y108.29 E.00459
G1 X124.509 Y108.898 E.01928
;WIDTH:0.413474
G1 X124.481 Y109.302 E.01248
;WIDTH:0.41018
G1 X124.503 Y109.369 E.00215
;WIDTH:0.454383
G1 X124.524 Y109.436 E.0024
;WIDTH:0.498586
G1 X124.546 Y109.503 E.00267
;WIDTH:0.542789
G1 X124.568 Y109.57 E.00293
;WIDTH:0.586992
G1 X124.59 Y109.637 E.00319
;WIDTH:0.631194
G1 X124.612 Y109.704 E.00345
G1 X124.644 Y109.641 E.00346
;WIDTH:0.586992
G1 X124.675 Y109.578 E.00318
;WIDTH:0.542789
G1 X124.707 Y109.515 E.00294
;WIDTH:0.498586
G1 X124.739 Y109.452 E.00268
;WIDTH:0.454383
G1 X124.77 Y109.389 E.0024
;WIDTH:0.41018
G1 X124.802 Y109.326 E.00216
;WIDTH:0.392988
G1 X124.927 Y108.987 E.01052
;WIDTH:0.419999
G1 X125.051 Y108.648 E.01132
G1 X125.276 Y108.369 E.01124
G1 X125.704 Y108.105 E.01577
G1 X126.231 Y108.031 E.01669
G1 X126.734 Y108.139 E.01613
G1 X127.091 Y108.452 E.01489
G1 X127.128 Y108.334 E.00388
G1 X127.281 Y108.251 E.00546
G1 X127.737 Y108.27 E.01431
G1 X127.832 Y108.439 E.00608
G1 X127.821 Y111.101 E.08347
G1 X127.64 Y111.234 E.00704
G1 X127.214 Y111.215 E.01337
G1 X127.097 Y111.067 E.00592
G1 X127.093 Y111.036 E.00098
G1 X126.782 Y111.208 E.01114
G1 X126.582 Y111.379 E.00825
G1 X126.082 Y111.447 E.01582
G1 X125.528 Y111.296 E.018
G1 X125.241 Y111.092 E.01104
G1 X124.928 Y110.66 E.01673
;WIDTH:0.469325
G1 X124.811 Y110.356 E.01155
;WIDTH:0.51865
G1 X124.694 Y110.052 E.01289
;WIDTH:0.558129
G1 X124.667 Y109.987 E.00302
;WIDTH:0.597607
G1 X124.64 Y109.922 E.00325
;WIDTH:0.637085
G1 X124.613 Y109.857 E.00348
G1 X124.587 Y109.927 E.00369
;WIDTH:0.597607
G1 X124.56 Y109.997 E.00346
;WIDTH:0.558129
G1 X124.534 Y110.067 E.0032
;WIDTH:0.51865
G1 X124.482 Y110.344 E.01115
;WIDTH:0.469325
G1 X124.431 Y110.622 E.01002
;WIDTH:0.419999
G1 X124.26 Y111.018 E.01352
G1 X123.93 Y111.304 E.01369
G1 X123.526 Y111.422 E.0132
G1 X123.043 Y111.364 E.01525
G1 X122.846 Y111.168 E.00871
G1 X122.591 Y111.039 E.00896
G1 X122.61 Y111.647 E.01907
G1 X122.719 Y112.174 E.01687
G1 X122.691 Y112.316 E.00454
G1 X122.566 Y112.398 E.00469
G1 X121.867 Y112.434 E.02195
G1 X121.716 Y112.37 E.00514
G1 X121.669 Y112.239 E.00436
G1 X121.693 Y111.593 E.02027
;WIDTH:0.456347
G1 X121.724 Y111.293 E.01037
;WIDTH:0.492695
G1 X121.755 Y110.993 E.01128
;WIDTH:0.529042
G1 X121.786 Y110.694 E.01215
;WIDTH:0.572712
G1 X121.763 Y110.6 E.00426
;WIDTH:0.616382
G1 X121.74 Y110.506 E.00461
G1 X121.618 Y110.647 E.00889
;WIDTH:0.567287
G1 X121.495 Y110.788 E.00816
;WIDTH:0.518191
G1 X121.422 Y110.872 E.0044
M204 S1000
;WIPE_START
G1 F8640
G1 X121.383 Y110.917 E-.01375
G1 X121.372 Y110.929 E-.00376
G1 X121.25 Y111.07 E-.04305
G1 X120.875 Y111.329 E-.10523
G1 X120.576 Y111.429 E-.0728
G1 X120.243 Y111.468 E-.07742
G1 X119.687 Y111.385 E-.1298
G1 X119.281 Y111.192 E-.1038
G1 X118.948 Y110.846 E-.11088
G1 X118.722 Y110.286 E-.13951
;WIPE_END
G1 Z.6 F720
G1 X124.612 Y109.704 F10800
G1 Z.2 F720
G1 E.8 F2100
M204 S800
